images/managed-team-1.svg

<?xml version="1.0"?>
<svg xmlns="http://www.w3.org/2000/svg" xmlns:xlink="http://www.w3.org/1999/xlink" width="478px" height="213px" viewBox="0 0 478 213" version="1.1">
    <!-- Generator: Sketch 56.3 (81716) - https://sketch.com -->
    <title>images/managed-team-1</title>
    <desc>Created with Sketch.</desc>
    <g id="05---Managed-Team-1" stroke="none" stroke-width="1" fill="none" fill-rule="evenodd">
        <g id="brown" transform="translate(6.000000, 67.000000)">
            <rect id="Rectangle-1" fill="#EFEFE7" fill-rule="evenodd" x="0" y="0" width="89" height="33" rx="16.5"/>
            <text stroke="none" font-family="Source Code Pro" font-size="12px" font-weight="700" fill="#979797" fill-opacity="1" text-anchor="middle" id="C6">
                <tspan fill="#808080" x="44.5" y="21" fill-opacity="1">4b078</tspan>
            </text>
        </g>
        <path id="Line" d="M104,83 L149,83 L149,84 L104,84 L104,88 L95,83.5 L104,79 L104,83 Z" fill="#8F8981" fill-rule="nonzero"/>
        <g id="brown" transform="translate(125.000000, 67.000000)">
            <rect id="Rectangle-1" fill="#EFEFE7" fill-rule="evenodd" x="0" y="0" width="89" height="33" rx="16.5"/>
            <text stroke="none" font-family="Source Code Pro" font-size="12px" font-weight="700" fill="#979797" fill-opacity="1" text-anchor="middle" id="C6">
                <tspan fill="#808080" x="44.5" y="21" fill-opacity="1">1edee</tspan>
            </text>
        </g>
        <g id="Line-+-brown-2" transform="translate(214.000000, 67.000000)">
            <path id="Line" d="M9,16 L54,16 L54,17 L9,17 L9,21 L0,16.5 L9,12 L9,16 Z" fill="#8F8981" fill-rule="nonzero"/>
            <g id="jessica" transform="translate(30.000000, 0.000000)">
                <rect id="Rectangle-1" fill="#B8E986" fill-rule="evenodd" x="0" y="0" width="89" height="33" rx="16.5"/>
                <text stroke="none" font-family="Source Code Pro" font-size="12px" font-weight="700" fill="#979797" fill-opacity="1" text-anchor="middle" id="C3'">
                    <tspan fill="#808080" x="44.5" y="21" fill-opacity="1">33009</tspan>
                </text>
            </g>
        </g>
        <path id="Line" d="M342,131 L387,131 L387,132 L342,132 L342,136 L333,131.5 L342,127 L342,131 Z" fill="#8F8981" fill-rule="nonzero"/>
        <g id="jessica" transform="translate(363.000000, 115.000000)">
            <rect id="Rectangle-1" fill="#B8E986" fill-rule="evenodd" x="0" y="0" width="89" height="33" rx="16.5"/>
            <text stroke="none" font-family="Source Code Pro" font-size="12px" font-weight="700" fill="#979797" fill-opacity="1" text-anchor="middle" id="C3'">
                <tspan fill="#808080" x="44.5" y="21" fill-opacity="1">85127</tspan>
            </text>
        </g>
        <path id="Line-3" d="M216.934939,98.6499022 L268.190439,131.347377 L267.652623,132.190439 L216.397123,99.4929646 L214.24586,102.865214 L209.078469,94.2310922 L219.086201,95.2776524 L216.934939,98.6499022 Z" fill="#8F8981" fill-rule="nonzero"/>
        <g id="jessica" transform="translate(244.000000, 115.000000)">
            <rect id="Rectangle-1" fill="#B8E986" fill-rule="evenodd" x="0" y="0" width="89" height="33" rx="16.5"/>
            <text stroke="none" font-family="Source Code Pro" font-size="12px" font-weight="700" fill="#979797" fill-opacity="1" text-anchor="middle" id="C3'">
                <tspan fill="#808080" x="44.5" y="21" fill-opacity="1">e5b0f</tspan>
            </text>
        </g>
        <g id="Line-2-+-ref" transform="translate(350.000000, 148.000000)">
            <path id="Line-2" d="M58,9 L58,32 L57,32 L57,9 L53,9 L57.5,0 L62,9 L58,9 Z" fill="#8F8981" fill-rule="nonzero"/>
            <g id="ref" transform="translate(0.000000, 22.000000)">
                <rect id="Rectangle-2" fill="#F44D27" x="0" y="0" width="116" height="38"/>
                <text stroke="none" font-family="Source Code Pro" font-size="12px" font-weight="700" fill="#979797" fill-opacity="1" text-anchor="middle" id="master">
                    <tspan fill="#f0f0f0" x="58" y="21.5151515" fill-opacity="1">featureB</tspan>
                </text>
            </g>
        </g>
        <g id="Line-2-+-ref-2" transform="translate(111.000000, 6.000000)">
            <path id="Line-2" d="M57,52 L57,9 L58,9 L58,52 L62,52 L57.5,61 L53,52 L57,52 Z" fill="#8F8981" fill-rule="nonzero"/>
            <g id="ref">
                <rect id="Rectangle-2" fill="#F44D27" x="0" y="0" width="116" height="38"/>
                <text stroke="none" font-family="Source Code Pro" font-size="12px" font-weight="700" fill="#979797" fill-opacity="1" text-anchor="middle" id="master">
                    <tspan fill="#f0f0f0" x="58" y="21.5151515" fill-opacity="1">master</tspan>
                </text>
            </g>
        </g>
        <g id="Line-2-+-ref-3" transform="translate(230.000000, 6.000000)">
            <path id="Line-2" d="M57,52 L57,9 L58,9 L58,52 L62,52 L57.5,61 L53,52 L57,52 Z" fill="#8F8981" fill-rule="nonzero"/>
            <g id="ref">
                <rect id="Rectangle-2" fill="#F44D27" x="0" y="0" width="116" height="38"/>
                <text stroke="none" font-family="Source Code Pro" font-size="12px" font-weight="700" fill="#979797" fill-opacity="1" text-anchor="middle" id="master">
                    <tspan fill="#f0f0f0" x="58" y="21.5151515" fill-opacity="1">featureA</tspan>
                </text>
            </g>
        </g>
    </g>
</svg>

<?xml version="1.0" encoding="UTF-8"?>
<svg id="svg7676" version="1.1" viewBox="0 0 454 210" xmlns="http://www.w3.org/2000/svg" xmlns:cc="http://creativecommons.org/ns#" xmlns:dc="http://purl.org/dc/elements/1.1/" xmlns:rdf="http://www.w3.org/1999/02/22-rdf-syntax-ns#">
 <metadata id="metadata7682">
  <rdf:RDF>
   <cc:Work rdf:about="">
    <dc:format>image/svg+xml</dc:format>
    <dc:type rdf:resource="http://purl.org/dc/dcmitype/StillImage"/>
    <dc:title>images/managed-team-1</dc:title>
   </cc:Work>
  </rdf:RDF>
 </metadata>
 <!-- Generator: Sketch 56.3 (81716) - https://sketch.com -->
 <title id="title7600">images/managed-team-1</title>
 <desc id="desc7602">Created with Sketch.</desc>
 <g id="g7806" transform="translate(-2,-2)">
  <g id="brown" transform="translate(6,67)" style="fill-rule:evenodd;fill:none">
   <rect id="Rectangle-1" width="89" height="33" rx="16.5" ry="16.5" style="fill-rule:evenodd;fill:#efefe7"/>
   <text id="C6" font-size="12px" font-weight="700" style="fill:#979797;font-family:'Source Code Pro';font-size:12px;font-weight:700;text-anchor:middle"><tspan id="tspan7605" x="44.5" y="21" style="fill:gray">4b078</tspan></text>
  </g>
  <path id="Line" d="m104 83h45v1h-45v4l-9-4.5 9-4.5z" style="fill:#8f8981"/>
  <g id="g7616" transform="translate(125,67)" style="fill-rule:evenodd;fill:none">
   <rect id="rect7610" width="89" height="33" rx="16.5" ry="16.5" style="fill-rule:evenodd;fill:#efefe7"/>
   <text id="text7614" font-size="12px" font-weight="700" style="fill:#979797;font-family:'Source Code Pro';font-size:12px;font-weight:700;text-anchor:middle"><tspan id="tspan7612" x="44.5" y="21" style="fill:gray">1edee</tspan></text>
  </g>
  <g id="Line-+-brown-2" transform="translate(214,67)" style="fill-rule:evenodd;fill:none">
   <path id="path7618" d="m9 16h45v1h-45v4l-9-4.5 9-4.5z" style="fill-rule:nonzero;fill:#8f8981"/>
   <g id="jessica" transform="translate(30)">
    <rect id="rect7620" width="89" height="33" rx="16.5" ry="16.5" style="fill-rule:evenodd;fill:#b8e986"/>
    <text id="C3'" font-size="12px" font-weight="700" style="fill:#979797;font-family:'Source Code Pro';font-size:12px;font-weight:700;text-anchor:middle"><tspan id="tspan7622" x="44.5" y="21" style="fill:gray">33009</tspan></text>
   </g>
  </g>
  <path id="path7627" d="m342 131h45v1h-45v4l-9-4.5 9-4.5z" style="fill:#8f8981"/>
  <g id="g7635" transform="translate(363,115)" style="fill-rule:evenodd;fill:none">
   <rect id="rect7629" width="89" height="33" rx="16.5" ry="16.5" style="fill-rule:evenodd;fill:#b8e986"/>
   <text id="text7633" font-size="12px" font-weight="700" style="fill:#979797;font-family:'Source Code Pro';font-size:12px;font-weight:700;text-anchor:middle"><tspan id="tspan7631" x="44.5" y="21" style="fill:gray">85127</tspan></text>
  </g>
  <path id="Line-3" d="m216.93 98.65 51.256 32.697-.53782.84306-51.256-32.697-2.1513 3.3722-5.1674-8.6341 10.008 1.0466z" style="fill:#8f8981"/>
  <g id="g7644" transform="translate(244,115)" style="fill-rule:evenodd;fill:none">
   <rect id="rect7638" width="89" height="33" rx="16.5" ry="16.5" style="fill-rule:evenodd;fill:#b8e986"/>
   <text id="text7642" font-size="12px" font-weight="700" style="fill:#979797;font-family:'Source Code Pro';font-size:12px;font-weight:700;text-anchor:middle"><tspan id="tspan7640" x="44.5" y="21" style="fill:gray">e5b0f</tspan></text>
  </g>
  <path id="Line-2" transform="translate(350,148)" d="m58 9v23h-1v-23h-4l4.5-9 4.5 9z" style="fill:#8f8981"/>
  <g id="g7765">
   <rect id="Rectangle-2" transform="matrix(.76724 0 0 1 363 170)" width="116" height="38" style="fill-rule:evenodd;fill:#f44d27"/>
   <text id="master" transform="translate(349.23 171.69)" font-size="12px" font-weight="700" style="fill-rule:evenodd;fill:#979797;font-family:'Source Code Pro';font-size:12px;font-weight:700;text-anchor:middle"><tspan id="tspan7648" x="58" y="21.515152" style="fill:#f0f0f0">featureB</tspan></text>
  </g>
  <path id="path7653" transform="translate(112,6)" d="m57 52v-43h1v43h4l-4.5 9-4.5-9z" style="fill:#8f8981"/>
  <g id="g7744">
   <rect id="rect7655" transform="matrix(.76724 0 0 1 125 6)" width="116" height="38" style="fill-rule:evenodd;fill:#f44d27"/>
   <text id="text7659" transform="translate(111.6 7.3008)" font-size="12px" font-weight="700" style="fill-rule:evenodd;fill:#979797;font-family:'Source Code Pro';font-size:12px;font-weight:700;text-anchor:middle"><tspan id="tspan7657" x="58" y="21.515152" style="fill:#f0f0f0">master</tspan></text>
  </g>
  <path id="path7664" transform="translate(231,6)" d="m57 52v-43h1v43h4l-4.5 9-4.5-9z" style="fill:#8f8981"/>
  <rect id="rect7666" transform="matrix(.76724 0 0 1 244 6)" width="116" height="38" style="fill-rule:evenodd;fill:#f44d27"/>
  <text id="text7670" transform="translate(230.06 7.6908)" font-size="12px" font-weight="700" style="fill-rule:evenodd;fill:#979797;font-family:'Source Code Pro';font-size:12px;font-weight:700;text-anchor:middle"><tspan id="tspan7668" x="58" y="21.515152" style="fill:#f0f0f0">featureA</tspan></text>
 </g>
</svg>
